wp-content/plugins/google-analytics-for-wordpress/lite/assets/vue/img/yir-icon-chart.svg

<svg width="36" height="36" viewBox="0 0 36 36" fill="none" xmlns="http://www.w3.org/2000/svg">
    <path d="M26.1667 3.56203C25.6804 3.56203 25.2141 3.37439 24.8703 3.04038C24.5265 2.70638 24.3333 2.25337 24.3333 1.78102C24.3333 1.30866 24.5265 0.855652 24.8703 0.521647C25.2141 0.187642 25.6804 0 26.1667 0H33.5C33.9862 0 34.4525 0.187642 34.7964 0.521647C35.1402 0.855652 35.3333 1.30866 35.3333 1.78102V8.90508C35.3333 9.37743 35.1402 9.83044 34.7964 10.1644C34.4525 10.4984 33.9862 10.6861 33.5 10.6861C33.0138 10.6861 32.5475 10.4984 32.2036 10.1644C31.8598 9.83044 31.6667 9.37743 31.6667 8.90508V6.08039L21.0462 16.3978C20.7024 16.7317 20.2361 16.9193 19.75 16.9193C19.2639 16.9193 18.7976 16.7317 18.4538 16.3978L13.3333 11.4234L3.6295 20.8503C3.28373 21.1748 2.82062 21.3543 2.33993 21.3502C1.85924 21.3462 1.39941 21.1589 1.0595 20.8286C0.719585 20.4984 0.526775 20.0517 0.522598 19.5848C0.518421 19.1178 0.70321 18.6679 1.03717 18.332L12.0372 7.6459C12.381 7.31201 12.8472 7.12444 13.3333 7.12444C13.8195 7.12444 14.2857 7.31201 14.6295 7.6459L19.75 12.6203L29.0743 3.56203H26.1667ZM4.16667 28.4962V33.8393C4.16667 34.3116 3.97351 34.7646 3.6297 35.0987C3.28588 35.4327 2.81956 35.6203 2.33333 35.6203C1.8471 35.6203 1.38079 35.4327 1.03697 35.0987C0.693154 34.7646 0.5 34.3116 0.5 33.8393V28.4962C0.5 28.0239 0.693154 27.5709 1.03697 27.2369C1.38079 26.9029 1.8471 26.7152 2.33333 26.7152C2.81956 26.7152 3.28588 26.9029 3.6297 27.2369C3.97351 27.5709 4.16667 28.0239 4.16667 28.4962ZM13.3333 21.3722C13.3333 20.8998 13.1402 20.4468 12.7964 20.1128C12.4525 19.7788 11.9862 19.5912 11.5 19.5912C11.0138 19.5912 10.5475 19.7788 10.2036 20.1128C9.85982 20.4468 9.66667 20.8998 9.66667 21.3722V33.8393C9.66667 34.3116 9.85982 34.7646 10.2036 35.0987C10.5475 35.4327 11.0138 35.6203 11.5 35.6203C11.9862 35.6203 12.4525 35.4327 12.7964 35.0987C13.1402 34.7646 13.3333 34.3116 13.3333 33.8393V21.3722ZM20.6667 23.1532C21.1529 23.1532 21.6192 23.3408 21.963 23.6748C22.3068 24.0088 22.5 24.4619 22.5 24.9342V33.8393C22.5 34.3116 22.3068 34.7646 21.963 35.0987C21.6192 35.4327 21.1529 35.6203 20.6667 35.6203C20.1804 35.6203 19.7141 35.4327 19.3703 35.0987C19.0265 34.7646 18.8333 34.3116 18.8333 33.8393V24.9342C18.8333 24.4619 19.0265 24.0088 19.3703 23.6748C19.7141 23.3408 20.1804 23.1532 20.6667 23.1532ZM31.6667 16.0291C31.6667 15.5568 31.4735 15.1038 31.1297 14.7698C30.7859 14.4358 30.3196 14.2481 29.8333 14.2481C29.3471 14.2481 28.8808 14.4358 28.537 14.7698C28.1932 15.1038 28 15.5568 28 16.0291V33.8393C28 34.3116 28.1932 34.7646 28.537 35.0987C28.8808 35.4327 29.3471 35.6203 29.8333 35.6203C30.3196 35.6203 30.7859 35.4327 31.1297 35.0987C31.4735 34.7646 31.6667 34.3116 31.6667 33.8393V16.0291Z" fill="#6F4BBB"/>
</svg>

<svg width="36" height="36" fill="none" xmlns="http://www.w3.org/2000/svg"><path d="M26.167 3.562a1.86 1.86 0 01-1.297-.522 1.756 1.756 0 01-.537-1.259c0-.472.194-.925.537-1.26A1.86 1.86 0 0126.167 0H33.5c.486 0 .953.188 1.296.522.344.334.537.787.537 1.259v7.124c0 .472-.193.925-.537 1.26-.343.333-.81.521-1.296.521s-.953-.188-1.296-.522a1.755 1.755 0 01-.537-1.259V6.08l-10.62 10.318c-.345.334-.81.521-1.297.521a1.86 1.86 0 01-1.296-.521l-5.12-4.975L3.63 20.85a1.862 1.862 0 01-1.29.5 1.86 1.86 0 01-1.28-.521 1.756 1.756 0 01-.537-1.244 1.75 1.75 0 01.514-1.253l11-10.686a1.86 1.86 0 011.296-.522c.486 0 .953.188 1.296.522l5.121 4.974 9.324-9.058h-2.907zm-22 24.934v5.343c0 .473-.193.926-.537 1.26a1.86 1.86 0 01-1.297.521 1.86 1.86 0 01-1.296-.521 1.756 1.756 0 01-.537-1.26v-5.343c0-.472.193-.925.537-1.26.344-.333.81-.52 1.296-.52.487 0 .953.187 1.297.52.344.335.537.788.537 1.26zm9.166-7.124c0-.472-.193-.925-.537-1.26a1.861 1.861 0 00-1.296-.52c-.486 0-.953.187-1.296.52a1.756 1.756 0 00-.537 1.26V33.84c0 .473.193.926.537 1.26.343.334.81.521 1.296.521s.953-.187 1.296-.521c.344-.334.537-.787.537-1.26V21.372zm7.334 1.781c.486 0 .952.188 1.296.522.344.334.537.787.537 1.26v8.904c0 .473-.193.926-.537 1.26a1.86 1.86 0 01-1.296.521 1.86 1.86 0 01-1.297-.521 1.756 1.756 0 01-.537-1.26v-8.905c0-.472.194-.925.537-1.26a1.86 1.86 0 011.297-.52zm11-7.124c0-.472-.194-.925-.537-1.26a1.861 1.861 0 00-1.297-.52c-.486 0-.952.187-1.296.52A1.756 1.756 0 0028 16.03v17.81c0 .473.193.926.537 1.26.344.334.81.521 1.296.521a1.86 1.86 0 001.297-.521c.344-.334.537-.787.537-1.26V16.03z" fill="#6F4BBB"/></svg>
